icons/Fediverse-Light.svg

<svg width="256" height="256" viewBox="0 0 256 256" fill="none" xmlns="http://www.w3.org/2000/svg">
<rect width="256" height="256" rx="60" fill="#F4F2ED"/>
<path d="M61.3894 100.77C59.2487 104.874 55.8944 108.215 51.7849 110.339L104.512 163.32L117.224 156.872L61.3894 100.77ZM130.938 170.652L118.226 177.1L144.943 203.946C147.084 199.842 150.439 196.499 154.549 194.376L130.938 170.652Z" fill="#A730B8"/>
<path d="M191.943 121.734L162.092 136.876L164.293 150.967L198.068 133.834C194.83 130.528 192.691 126.302 191.943 121.734V121.734ZM144.763 145.666L74.1841 181.468C77.4227 184.774 79.5623 189 80.3105 193.569L146.964 159.757L144.763 145.666Z" fill="#5496BE"/>
<path d="M122.066 57.4756L88.0088 124.024L98.064 134.127L134.123 63.6682C129.563 62.8961 125.352 60.7334 122.066 57.4756V57.4756ZM79.1512 141.332L61.9006 175.04C66.4605 175.812 70.6709 177.974 73.9568 181.232L89.2057 151.435L79.1512 141.332Z" fill="#CE3D1A"/>
<path d="M51.4921 110.487C48.0184 112.227 44.1531 113.036 40.2737 112.834C39.5479 112.794 38.8245 112.718 38.106 112.608L48.179 177.097C51.6526 175.357 55.5179 174.548 59.3973 174.75C60.1227 174.79 60.8457 174.866 61.5638 174.977L51.4921 110.487Z" fill="#D0188F"/>
<path d="M80.364 193.888C80.5946 195.386 80.6733 196.902 80.5989 198.416C80.4271 201.503 79.6207 204.522 78.23 207.283L142.65 217.63C142.419 216.133 142.34 214.615 142.414 213.102C142.586 210.015 143.393 206.996 144.784 204.235L80.364 193.888Z" fill="#5B36E9"/>
<path d="M198.294 134.069L168.561 192.171C173.121 192.943 177.333 195.106 180.619 198.364L210.353 140.263C205.792 139.491 201.581 137.328 198.294 134.069V134.069Z" fill="#30B873"/>
<path d="M157.741 51.894C155.6 55.9982 152.245 59.3404 148.135 61.464L194.182 107.731C196.323 103.627 199.678 100.285 203.788 98.1615L157.741 51.894Z" fill="#EBE305"/>
<path d="M115.713 45.1406L57.5039 74.6667C60.742 77.9723 62.8814 82.1981 63.6297 86.7665L121.838 57.2391C118.601 53.9338 116.461 49.7085 115.713 45.1406V45.1406Z" fill="#F47601"/>
<path d="M148.029 61.5176C144.509 63.3221 140.575 64.1643 136.626 63.9588C135.968 63.9189 135.312 63.85 134.66 63.7523L139.817 96.7998L153.886 99.0594L148.029 61.5176ZM142.813 116.012L155.004 194.146C158.437 192.462 162.242 191.682 166.059 191.881C166.846 191.926 167.63 192.012 168.408 192.139L156.883 118.271L142.813 116.012Z" fill="#57C115"/>
<path d="M63.6712 87.0144C63.9106 88.5349 63.9934 90.0759 63.9182 91.6133C63.7486 94.6764 62.9543 97.6724 61.5842 100.417L94.6268 105.729L101.121 93.0343L63.6712 87.0144ZM120.303 96.1173L113.808 108.813L191.88 121.363C191.656 119.882 191.58 118.383 191.654 116.887C191.827 113.782 192.643 110.746 194.049 107.972L120.303 96.1173Z" fill="#DBB210"/>
<path d="M136.737 61.9182C147.995 62.532 157.618 53.8946 158.232 42.6261C158.845 31.3577 150.216 21.7252 138.957 21.1114C127.699 20.4976 118.076 29.1349 117.462 40.4034C116.849 51.6719 125.479 61.3044 136.737 61.9182Z" fill="#FFCA00" fill-opacity="0.995968"/>
<path d="M212.966 138.513C224.225 139.127 233.848 130.49 234.461 119.221C235.075 107.953 226.445 98.3204 215.187 97.7066C203.929 97.0928 194.305 105.73 193.692 116.999C193.079 128.267 201.708 137.9 212.966 138.513Z" fill="#64FF00" fill-opacity="0.995968"/>
<path d="M163.727 234.728C174.985 235.342 184.609 226.704 185.222 215.436C185.835 204.167 177.206 194.535 165.948 193.921C154.69 193.307 145.066 201.945 144.453 213.213C143.839 224.482 152.469 234.114 163.727 234.728Z" fill="#00A3FF" fill-opacity="0.995968"/>
<path d="M57.0656 217.597C68.3237 218.21 77.9473 209.573 78.5605 198.305C79.1738 187.036 70.5444 177.404 59.2863 176.79C48.0281 176.176 38.4045 184.813 37.7913 196.082C37.178 207.35 45.8074 216.983 57.0656 217.597Z" fill="#9500FF" fill-opacity="0.995968"/>
<path d="M40.3846 110.794C51.6428 111.408 61.2664 102.771 61.8796 91.5024C62.4929 80.2339 53.8635 70.6014 42.6053 69.9876C31.3472 69.3738 21.7236 78.0111 21.1104 89.2796C20.4971 100.548 29.1265 110.181 40.3846 110.794Z" fill="#FF0000" fill-opacity="0.995968"/>
</svg>

<svg xmlns="http://www.w3.org/2000/svg" width="256" height="256" fill="none" viewBox="0 0 256 256"><rect width="256" height="256" fill="#F4F2ED" rx="60"/><path fill="#A730B8" d="M61.39 100.77a22.5 22.5 0 0 1-9.6 9.57l52.72 52.98 12.71-6.45zm69.55 69.88-12.71 6.45 26.71 26.85a22.5 22.5 0 0 1 9.6-9.57z"/><path fill="#5496BE" d="m191.94 121.73-29.85 15.15 2.2 14.09 33.78-17.14a22.5 22.5 0 0 1-6.13-12.1m-47.18 23.94-70.58 35.8a22.5 22.5 0 0 1 6.13 12.1l66.65-33.81z"/><path fill="#CE3D1A" d="M122.07 57.48 88 124.02l10.05 10.1 36.06-70.45a22.5 22.5 0 0 1-12.05-6.2m-42.92 83.85L61.9 175.04c4.56.77 8.77 2.93 12.06 6.2l15.25-29.8z"/><path fill="#D0188F" d="M51.5 110.49a22.4 22.4 0 0 1-13.4 2.12l10.08 64.49a22.4 22.4 0 0 1 13.38-2.12z"/><path fill="#5B36E9" d="M80.36 193.89q.34 2.25.24 4.53c-.17 3.08-.98 6.1-2.37 8.86l64.42 10.35a23 23 0 0 1-.24-4.53c.18-3.09.98-6.1 2.37-8.86z"/><path fill="#30B873" d="m198.3 134.07-29.74 58.1c4.56.77 8.77 2.94 12.06 6.2l29.73-58.1a22.5 22.5 0 0 1-12.06-6.2"/><path fill="#EBE305" d="M157.74 51.9a22.5 22.5 0 0 1-9.6 9.56l46.04 46.27a22.5 22.5 0 0 1 9.6-9.57z"/><path fill="#F47601" d="m115.71 45.14-58.2 29.53a22.5 22.5 0 0 1 6.12 12.1l58.2-29.53a22.5 22.5 0 0 1-6.12-12.1"/><path fill="#57C115" d="M148.03 61.52a22.4 22.4 0 0 1-13.37 2.23l5.16 33.05 14.07 2.26zm-5.22 54.5 12.2 78.13a22.5 22.5 0 0 1 13.4-2.01l-11.53-73.87z"/><path fill="#DBB210" d="M63.67 87.01q.36 2.3.25 4.6a22.5 22.5 0 0 1-2.34 8.8l33.05 5.32 6.5-12.7zm56.63 9.1-6.5 12.7 78.08 12.55a23 23 0 0 1-.23-4.47c.18-3.1 1-6.14 2.4-8.92z"/><path fill="#FFCA00" d="M136.74 61.92a20.43 20.43 0 1 0 2.2-40.82 20.43 20.43 0 0 0-2.2 40.82"/><path fill="#64FF00" d="M212.97 138.51a20.43 20.43 0 1 0 2.2-40.82 20.43 20.43 0 0 0-2.2 40.82"/><path fill="#00A3FF" d="M163.73 234.73a20.43 20.43 0 1 0 2.2-40.82 20.43 20.43 0 0 0-2.2 40.82"/><path fill="#9500FF" d="M57.07 217.6a20.43 20.43 0 1 0 2.2-40.82 20.43 20.43 0 0 0-2.2 40.82"/><path fill="red" d="M40.38 110.8a20.43 20.43 0 1 0 2.2-40.82 20.43 20.43 0 0 0-2.2 40.81"/></svg>
